src/assets/images/blocks/ecommerce/storefront/storefront-1-22.svg

<svg fill="none" height="24" viewBox="0 0 36 24" width="36" xmlns="http://www.w3.org/2000/svg"><path d="m0 3c0-1.65685 1.34315-3 3-3h30c1.6569 0 3 1.34315 3 3v18c0 1.6569-1.3431 3-3 3h-30c-1.65685 0-3-1.3431-3-3z" fill="#e6e6e6"/><path d="m27.9078 18.8445c1.3827 0 2.0335-.5276 2.6019-2.1268l2.4903-6.98476h-1.4418l-1.67 5.40386h-.0293l-1.6699-5.39654h-1.4827l2.4024 6.64804-.1287.4044c-.0908.5788-.6105.9917-1.1954.949-.1116 0-.3281-.0115-.416-.0231v1.0978c.1788.0244.3593.036.5392.0354zm-4.8049-3.4979c-.7563 0-1.2363-.3659-1.2363-.9197 0-.574.4629-.9082 1.3479-.9613l1.576-.0994v.516c-.0347.8502-.7526 1.512-1.6028 1.4772-.0287-.0012-.0567-.0036-.0848-.0061zm-.3806 1.0838c.8582.0232 1.6608-.4239 2.092-1.1661h.0293v1.0978h1.3125v-4.5469c0-1.3186-1.0545-2.16826-2.6781-2.16826-1.5059 0-2.6196.86116-2.6605 2.04506h1.2778c.1525-.602.7246-.9991 1.3418-.932.8673 0 1.3534.4044 1.3534 1.1485v.5038l-1.7687.1055c-1.6468.0994-2.5373.7734-2.5373 1.9456-.0012 1.1888.9186 1.9737 2.2372 1.9737zm-7.6062-8.01h1.6345c1.2308 0 1.9341.65627 1.9341 1.8108 0 1.1546-.7033 1.8164-1.9396 1.8164h-1.629zm-1.4181-1.19543v9.13533h1.4181v-3.1142h1.9633c1.5992.086 2.9648-1.1406 3.0508-2.7398.0049-.0909.0055-.1811.0018-.272.0756-1.58152-1.1448-2.92455-2.7263-3.00079-.0933-.00427-.186-.00366-.2794.00061zm-4.70672 1.70471c-.81484-.04696-1.51198.46293-1.89866.46293-.38669 0-.98441-.43914-1.62909-.42694-.85388.02196-1.63213.49464-2.04505 1.24243-.87888 1.5119-.22871 3.7503.6209 4.9805.41596.61.91487 1.2778 1.57053 1.254.6209-.0232.8673-.4044 1.6175-.4044.75019 0 .97281.4044 1.62908.3922.67945-.0116 1.10761-.6099 1.52481-1.2198.294-.4318.5227-.9045.6794-1.4028-.8008-.3501-1.31983-1.1387-1.3241-2.0127.0122-.771.416-1.4821 1.0722-1.8865-.4184-.59406-1.08989-.95879-1.8163-.98441zm-.50867-.80691c-.3568.4495-.90267.7075-1.4766.69713-.0366-.5599.1537-1.11066.52758-1.52906.37204-.43182.89657-.70262 1.46379-.75568.04026.57576-.14455 1.1442-.51599 1.58578" fill="#000"/></svg>

<svg width="36" height="24" viewBox="0 0 36 24" fill="none" xmlns="http://www.w3.org/2000/svg">
<path d="M0 3C0 1.34315 1.34315 0 3 0H33C34.6569 0 36 1.34315 36 3V21C36 22.6569 34.6569 24 33 24H3C1.34315 24 0 22.6569 0 21V3Z" fill="#E6E6E6"/>
<path d="M27.9078 18.8445C29.2905 18.8445 29.9413 18.3169 30.5097 16.7177L33 9.73294H31.5582L29.8882 15.1368H29.8589L28.189 9.74026H26.7063L29.1087 16.3883L28.98 16.7927C28.8892 17.3715 28.3695 17.7844 27.7846 17.7417C27.673 17.7417 27.4565 17.7302 27.3686 17.7186V18.8164C27.5474 18.8408 27.7279 18.8524 27.9078 18.8518V18.8445ZM23.1029 15.3466C22.3466 15.3466 21.8666 14.9807 21.8666 14.4269C21.8666 13.8529 22.3295 13.5187 23.2145 13.4656L24.7905 13.3662V13.8822C24.7558 14.7324 24.0379 15.3942 23.1877 15.3594C23.159 15.3582 23.131 15.3558 23.1029 15.3533V15.3466ZM22.7223 16.4304C23.5805 16.4536 24.3831 16.0065 24.8143 15.2643H24.8436V16.3621H26.1561V11.8152C26.1561 10.4966 25.1016 9.64694 23.478 9.64694C21.9721 9.64694 20.8584 10.5081 20.8175 11.692H22.0953C22.2478 11.09 22.8199 10.6929 23.4371 10.76C24.3044 10.76 24.7905 11.1644 24.7905 11.9085V12.4123L23.0218 12.5178C21.375 12.6172 20.4845 13.2912 20.4845 14.4634C20.4833 15.6522 21.4031 16.4371 22.7217 16.4371L22.7223 16.4304ZM15.1161 8.4204H16.7506C17.9814 8.4204 18.6847 9.07667 18.6847 10.2312C18.6847 11.3858 17.9814 12.0476 16.7451 12.0476H15.1161V8.4204ZM13.698 7.22497V16.3603H15.1161V13.2461H17.0794C18.6786 13.3321 20.0442 12.1055 20.1302 10.5063C20.1351 10.4154 20.1357 10.3252 20.132 10.2343C20.2076 8.65278 18.9872 7.30975 17.4057 7.23351C17.3124 7.22924 17.2197 7.22985 17.1263 7.23412L13.698 7.22497ZM8.99128 8.92968C8.17644 8.88272 7.4793 9.39261 7.09262 9.39261C6.70593 9.39261 6.10821 8.95347 5.46353 8.96567C4.60965 8.98763 3.8314 9.46031 3.41848 10.2081C2.5396 11.72 3.18977 13.9584 4.03938 15.1886C4.45534 15.7986 4.95425 16.4664 5.60991 16.4426C6.23081 16.4194 6.47721 16.0382 7.22741 16.0382C7.9776 16.0382 8.20022 16.4426 8.85649 16.4304C9.53594 16.4188 9.9641 15.8205 10.3813 15.2106C10.6753 14.7788 10.904 14.3061 11.0607 13.8078C10.2599 13.4577 9.74087 12.6691 9.7366 11.7951C9.7488 11.0241 10.1526 10.313 10.8088 9.9086C10.3904 9.31454 9.71891 8.94981 8.9925 8.92419L8.99128 8.92968ZM8.48261 8.12277C8.12581 8.57227 7.57994 8.83027 7.00601 8.8199C6.96941 8.26 7.15971 7.70924 7.53359 7.29084C7.90563 6.85902 8.43016 6.58822 8.99738 6.53516C9.03764 7.11092 8.85283 7.67936 8.48139 8.12094" fill="black"/>
</svg>
